article/lines/Lines V5.svg

<?xml version="1.0" encoding="UTF-8"?>
<svg width="259px" height="84px" viewBox="0 0 259 84" version="1.1" xmlns="http://www.w3.org/2000/svg" xmlns:xlink="http://www.w3.org/1999/xlink">
    <!-- Generator: Sketch Beta 62 (91388) - https://sketch.com -->
    <title>Artboard Copy 5</title>
    <desc>Created with Sketch Beta.</desc>
    <g id="Artboard-Copy-5" stroke="none" stroke-width="1" fill="none" fill-rule="evenodd">
        <path d="M17.52,17.52 L17.52,82.5599932 L0,82.5599932 L0,7.10542736e-15 L17.52,17.52 L17.52,17.52 Z M50.16,50.16 L50.16,82.5599932 L32.64,82.5599932 L32.64,32.64 L50.16,50.16 L50.16,50.16 Z M82.5599932,82.5599932 L65.04,65.04 L65.04,20.5199932 L82.56,20.5199932 L82.56,28.3199932 C84.4000092,25.4399788 86.9799834,23.1800014 90.3,21.5399932 C93.6200166,19.899985 97.27998,19.0799932 101.28,19.0799932 C105.680022,19.0799932 109.639982,20.099983 113.16,22.1399932 C116.680018,24.1800034 119.41999,27.019975 121.38,30.6599932 C123.34001,34.3000114 124.32,38.43997 124.32,43.0799932 L124.32,82.5599932 L107.4,82.5599932 L107.4,46.7999932 C107.4,42.959974 106.320011,39.8400052 104.16,37.4399932 C101.999989,35.0399812 99.1600176,33.8399932 95.64,33.8399932 C91.9599816,33.8399932 88.8800124,34.9999816 86.4,37.3199932 C83.9199876,39.6400048 82.68,42.4799764 82.68,45.8399932 L82.56,45.4799932 L82.56,82.5599932 L82.5599932,82.5599932 Z M168.36,68.5199932 C170.840012,68.5199932 173.419987,67.9999984 176.1,66.9599932 C178.780013,65.919988 180.959992,64.6000012 182.64,62.9999932 L193.8,74.3999932 C191.079986,77.2800076 187.340024,79.5999844 182.58,81.3599932 C177.819976,83.120002 173.120023,83.9999932 168.48,83.9999932 C162.39997,83.9999932 156.840025,82.6000072 151.8,79.7999932 C146.759975,76.9999792 142.800014,73.120018 139.92,68.1599932 C137.039986,63.1999684 135.6,57.6000244 135.6,51.3599932 C135.6,45.1999624 136.999986,39.6600178 139.8,34.7399932 C142.600014,29.8199686 146.419976,25.980007 151.26,23.2199932 C156.100024,20.4599794 161.51997,19.0799932 167.52,19.0799932 C173.920032,19.0799932 179.439977,20.6199778 184.08,23.6999932 C188.720023,26.7800086 192.259988,31.1999644 194.7,36.9599932 C197.140012,42.720022 198.36,49.4799544 198.36,57.2399932 L153.6,57.2399932 C154.640005,60.6800104 156.459987,63.419983 159.06,65.4599932 C161.660013,67.5000034 164.759982,68.5199932 168.36,68.5199932 Z M168.24,34.5599932 C164.959984,34.5599932 162.020013,35.4599842 159.42,37.2599932 C156.819987,39.0599932 154.960006,41.5199776 153.84,44.6399932 L181.56,44.6399932 C180.679996,41.5199776 179.100011,39.0599932 176.82,37.2599932 C174.539989,35.4599842 171.680017,34.5599932 168.24,34.5599932 Z M233.52,83.9999932 C228.479975,83.9999932 223.480025,83.1800014 218.52,81.5399932 C213.559975,79.899985 209.240018,77.600008 205.56,74.6399932 L213.12,62.5199932 C219.600032,67.1600164 226.519963,69.4799932 233.88,69.4799932 C236.200012,69.4799932 238.119992,69.0399976 239.64,68.1599932 C241.160008,67.2799888 241.92,66.16 241.92,64.7999932 C241.92,63.0399844 241.080008,61.7399974 239.4,60.8999932 C237.719992,60.059989 234.92002,59.1199984 231,58.0799932 C225.959975,56.8799872 221.860016,55.6 218.7,54.2399932 C215.539984,52.8799864 213.020009,50.9800054 211.14,48.5399932 C209.259991,46.099981 208.32,42.9200128 208.32,38.9999932 C208.32,35.159974 209.33999,31.7200084 211.38,28.6799932 C213.42001,25.639978 216.259982,23.2800016 219.9,21.5999932 C223.540018,19.9199848 227.759976,19.0799932 232.56,19.0799932 C236.880022,19.0799932 241.159979,19.7599864 245.4,21.1199932 C249.640021,22.48 253.519982,24.3599812 257.04,26.7599932 L249.96,39.2399932 C247.159986,37.4799844 244.220015,36.119998 241.14,35.1599932 C238.059985,34.1999884 235.200013,33.7199932 232.56,33.7199932 C230.399989,33.7199932 228.640007,34.0599898 227.28,34.7399932 C225.919993,35.4199966 225.24,36.3199876 225.24,37.4399932 C225.24,39.0400012 225.939993,40.2399892 227.34,41.0399932 C228.740007,41.8399972 231.679978,42.8399872 236.16,44.0399932 C240.800023,45.2399992 244.659985,46.4999866 247.74,47.8199932 C250.820015,49.1399998 253.419989,51.0999802 255.54,53.6999932 C257.660011,56.3000062 258.72,59.719972 258.72,63.9599932 C258.72,70.0400236 256.420023,74.899975 251.82,78.5399932 C247.219977,82.1800114 241.120038,83.9999932 233.52,83.9999932 Z" id="Shape" fill="#FFFFFF" fill-rule="nonzero"></path>
        <polygon id="Rectangle" fill="#FFFFFF" transform="translate(45.788615, 24.795324) rotate(45.000000) translate(-45.788615, -24.795324) " points="45.7664782 18.5839212 58.1892838 31.0067268 33.3879464 30.962453"></polygon>
    </g>
</svg>

<svg xmlns="http://www.w3.org/2000/svg" width="259" height="84" viewBox="0 0 259 84"><title>Artboard Copy 5</title><g fill="#FFF" fill-rule="evenodd"><path fill-rule="nonzero" d="M17.52 17.52v65.04H0V0l17.52 17.52zm32.64 32.64v32.4H32.64V32.64l17.52 17.52zm32.4 32.4L65.04 65.04V20.52h17.52v7.8c1.84-2.88 4.42-5.14 7.74-6.78 3.32-1.64 6.98-2.46 10.98-2.46 4.4 0 8.36 1.02 11.88 3.06 3.52 2.04 6.26 4.88 8.22 8.52 1.96 3.64 2.94 7.78 2.94 12.42v39.48H107.4V46.8c0-3.84-1.08-6.96-3.24-9.36-2.16-2.4-5-3.6-8.52-3.6-3.68 0-6.76 1.16-9.24 3.48-2.48 2.32-3.72 5.16-3.72 8.52l-.12-.36v37.08zm85.8-14.04c2.48 0 5.06-.52 7.74-1.56 2.68-1.04 4.86-2.36 6.54-3.96l11.16 11.4c-2.72 2.88-6.46 5.2-11.22 6.96-4.76 1.76-9.46 2.64-14.1 2.64-6.08 0-11.64-1.4-16.68-4.2-5.04-2.8-9-6.68-11.88-11.64-2.88-4.96-4.32-10.56-4.32-16.8 0-6.16 1.4-11.7 4.2-16.62 2.8-4.92 6.62-8.76 11.46-11.52 4.84-2.76 10.26-4.14 16.26-4.14 6.4 0 11.92 1.54 16.56 4.62 4.64 3.08 8.18 7.5 10.62 13.26 2.44 5.76 3.66 12.52 3.66 20.28H153.6c1.04 3.44 2.86 6.18 5.46 8.22 2.6 2.04 5.7 3.06 9.3 3.06zm-.12-33.96c-3.28 0-6.22.9-8.82 2.7-2.6 1.8-4.46 4.26-5.58 7.38h27.72c-.88-3.12-2.46-5.58-4.74-7.38-2.28-1.8-5.14-2.7-8.58-2.7zM233.52 84c-5.04 0-10.04-.82-15-2.46-4.96-1.64-9.28-3.94-12.96-6.9l7.56-12.12c6.48 4.64 13.4 6.96 20.76 6.96 2.32 0 4.24-.44 5.76-1.32 1.52-.88 2.28-2 2.28-3.36 0-1.76-.84-3.06-2.52-3.9-1.68-.84-4.48-1.78-8.4-2.82-5.04-1.2-9.14-2.48-12.3-3.84-3.16-1.36-5.68-3.26-7.56-5.7-1.88-2.44-2.82-5.62-2.82-9.54 0-3.84 1.02-7.28 3.06-10.32s4.88-5.4 8.52-7.08c3.64-1.68 7.86-2.52 12.66-2.52 4.32 0 8.6.68 12.84 2.04 4.24 1.36 8.12 3.24 11.64 5.64l-7.08 12.48a37.47 37.47 0 0 0-8.82-4.08c-3.08-.96-5.94-1.44-8.58-1.44-2.16 0-3.92.34-5.28 1.02-1.36.68-2.04 1.58-2.04 2.7 0 1.6.7 2.8 2.1 3.6 1.4.8 4.34 1.8 8.82 3 4.64 1.2 8.5 2.46 11.58 3.78 3.08 1.32 5.68 3.28 7.8 5.88s3.18 6.02 3.18 10.26c0 6.08-2.3 10.94-6.9 14.58-4.6 3.64-10.7 5.46-18.3 5.46z"/><path d="M50.165 20.387v17.569L32.66 20.387z"/></g></svg>
